X: 39603
T: Tell Her I Am
R: jig
M: 6/8
K: Gmajor
d|:edB G2B|~D3 G2B|~D3 ~G2B|~D3~G2A|BGe ~e2d|
edB G2B|~D3 ~G2B|AGe gaa|gec d(3.G.F.d:|
|:B(3.G.F.B d(3.G.F.d|BGB dBG|(3.A.c.A A AGA|GBe e2d|
B(3.G.F.B def|gfe dBG|AGe eaa|gec dcd:|
|:efg e(3c.A.e|dBG AGd|a3 aga|bge ~e2d|
efg e(3c.A.e|dBG AGe|a(3.c.A.f ~g2a|1 geB d(3.G.F.d:|2 gec d2||

